img/device-background.svg

<svg fill="none" height="882" viewBox="0 0 882 882" width="882" xmlns="http://www.w3.org/2000/svg"><path d="m219.963 661.037c-121.7463 121.746-318.6839 122.198-439.873 1.009l220.44141-220.441z" fill="#09264f"/><g clip-rule="evenodd" fill-rule="evenodd"><path d="m219.963 661.037c-60.594-60.595-60.368-159.064.505-219.937 60.594 60.594 60.368 159.064-.505 219.937z" fill="#c0e7e4"/><path d="m330.184 550.816c-60.594-60.594-60.368-159.064.505-219.937 60.594 60.595 60.368 159.064-.505 219.937z" fill="#c0e7e4"/><path d="m110.248 551.321c-60.5947-60.594-60.3688-159.064.504-219.937 60.595 60.595 60.369 159.064-.504 219.937z" fill="#c0e7e4"/><path d="m220.468 441.1c-60.594-60.594-60.368-159.063.505-219.936 60.594 60.594 60.368 159.063-.505 219.936z" fill="#c0e7e4"/><path d="m-439.342 442.615c121.189 121.189 318.127 120.737 439.873626-1.01-121.188626-121.189-318.126626-120.737-439.873626 1.01z" fill="#2a75a5"/></g><path d="m-5.69691 331.842c-57.26059.131-103.57209-46.181-103.44109-103.441l.268-116.639 116.63842-.268c57.26048-.131 103.57258 46.181 103.44158 103.441l-.268 116.639z" fill="#7dd4d7"/><path d="m-53.8224 166.81c-30.4366 30.437-30.5496 79.671-.2524 109.968 30.2973 30.298 79.5317 30.185 109.9683-.252s30.5496-79.671.2524-109.968c-30.2972-30.298-79.5317-30.185-109.9683.252z" fill="#103c78"/><path d="m331.194 110.943c-60.874 60.873-61.1 159.342-.505 219.937 60.594 60.594 159.063 60.368 219.936-.505 60.874-60.873 61.1-159.342.505-219.937-60.594-60.5941-159.063-60.3681-219.936.505z" fill="#c3f5f1"/><path d="m551.634-109.499c-60.873 60.8736-61.099 159.3425-.504 219.937 60.594 60.594 159.063 60.368 219.936-.505 60.874-60.873 61.1-159.3419.505-219.936-60.594-60.595-159.063-60.369-219.937.504z" fill="#7dd4d7"/><path d="m550.939 110.629c.279-121.6779 99.145-220.544 220.823-220.823-.279 121.6779-99.145 220.544-220.823 220.823z" fill="#09264f"/><path clip-rule="evenodd" d="m1.54129 1.732c121.18871 121.189 318.12671 120.737 439.87271-1.009512-121.189-121.189488-318.126-120.737488-439.87271 1.009512z" fill="#2a75a5" fill-rule="evenodd"/><path d="m368.27-72.4214 73.144 73.143995 73.48-73.480395-73.143-73.1442z" fill="#09264f"/></svg>

<svg width="882" height="882" viewBox="0 0 882 882" fill="none" xmlns="http://www.w3.org/2000/svg">
<path d="M219.963 661.037C98.2167 782.783 -98.7209 783.235 -219.91 662.046L0.53141 441.605L219.963 661.037Z" fill="#09264F"/>
<path fill-rule="evenodd" clip-rule="evenodd" d="M219.963 661.037C159.369 600.442 159.595 501.973 220.468 441.1C281.062 501.694 280.836 600.164 219.963 661.037Z" fill="#C0E7E4"/>
<path fill-rule="evenodd" clip-rule="evenodd" d="M330.184 550.816C269.59 490.222 269.816 391.752 330.689 330.879C391.283 391.474 391.057 489.943 330.184 550.816Z" fill="#C0E7E4"/>
<path fill-rule="evenodd" clip-rule="evenodd" d="M110.248 551.321C49.6533 490.727 49.8792 392.257 110.752 331.384C171.347 391.979 171.121 490.448 110.248 551.321Z" fill="#C0E7E4"/>
<path fill-rule="evenodd" clip-rule="evenodd" d="M220.468 441.1C159.874 380.506 160.1 282.037 220.973 221.164C281.567 281.758 281.341 380.227 220.468 441.1Z" fill="#C0E7E4"/>
<path fill-rule="evenodd" clip-rule="evenodd" d="M-439.342 442.615C-318.153 563.804 -121.215 563.352 0.531626 441.605C-120.657 320.416 -317.595 320.868 -439.342 442.615Z" fill="#2A75A5"/>
<path d="M-5.69691 331.842C-62.9575 331.973 -109.269 285.661 -109.138 228.401L-108.87 111.762L7.76842 111.494C65.0289 111.363 111.341 157.675 111.21 214.935L110.942 331.574L-5.69691 331.842Z" fill="#7DD4D7"/>
<path d="M-53.8224 166.81C-84.259 197.247 -84.372 246.481 -54.0748 276.778C-23.7775 307.076 25.4569 306.963 55.8935 276.526C86.3301 246.089 86.4431 196.855 56.1459 166.558C25.8487 136.26 -23.3858 136.373 -53.8224 166.81Z" fill="#103C78"/>
<path d="M331.194 110.943C270.32 171.816 270.094 270.285 330.689 330.88C391.283 391.474 489.752 391.248 550.625 330.375C611.499 269.502 611.725 171.033 551.13 110.438C490.536 49.8439 392.067 50.0699 331.194 110.943Z" fill="#C3F5F1"/>
<path d="M551.634 -109.499C490.761 -48.6254 490.535 49.8435 551.13 110.438C611.724 171.032 710.193 170.806 771.066 109.933C831.94 49.06 832.166 -49.4089 771.571 -110.003C710.977 -170.598 612.508 -170.372 551.634 -109.499Z" fill="#7DD4D7"/>
<path d="M550.939 110.629C551.218 -11.0489 650.084 -109.915 771.762 -110.194C771.483 11.4839 672.617 110.35 550.939 110.629Z" fill="#09264F"/>
<path fill-rule="evenodd" clip-rule="evenodd" d="M1.54129 1.732C122.73 122.921 319.668 122.469 441.414 0.722488C320.225 -120.467 123.288 -120.015 1.54129 1.732Z" fill="#2A75A5"/>
<path d="M368.27 -72.4214L441.414 0.722595L514.894 -72.7578L441.751 -145.902L368.27 -72.4214Z" fill="#09264F"/>
</svg>
